X: 571
T: Flying Cloud Cotillian
C:Traditional
B: jims roots
M:4/4
L:1/8
Q: 1/4=100
K:G
V:1 
%Tabeldited by  Mike Stangeland
%460
x Bc |: "G"d2 Bc d2 Bc | dgza (3gag ed | "C"c2 cd edce | "D"agfe dcBc |
"G"dcBc dcBc | dgza (3gag ed | "D"fdfa fdef |[1 g"G"edB G2 Bc:|[2 g"G"edB G2 G^G||
|: "D"A2 AB AGFE | DFAd fdfd | "A"A^ceg feag | "D"fdfb "A"a4 |
"D"A2 AB AGFE | DFAd fdfd | "A"A^ceg feag |[1 f"D"de^c d2 G^G:| [2 f"D"de^c d2 B,C ||
|: "G"D2 DE DCB,A, | G,B,DG BGBG | "D"DFAc BAdc | "G"BGBe "D"d2 B,C |
"G"D2 DE DCB,A, | G,B,DG BGBG | "D"DFAc BAdc |[1 B"G"GAF G2 B,C:| [2 B"G"GAF G2 fg ||
|: "D"aAAA "A"gAAA | "D"fefa fedB | "A"A^ceg feag | "D"fdfb "A"a4 | "D"aAAA "A"gAAA |
"D"fefa fedB | "A"A^ceg feag | [1 f"A"de^c "D"d2 fg:| [2 f"A"de^c "D"d4|]
% abcbook-tune_id 6298c25d5014701a3a8e8465


% abcbook-boost 0
% abcbook-tablature 
% abcbook-transpose 
% abcbook-lastupdated 1654178398038
% abcbook-soundfonts 
% abcbook-repeats 1


